dist/img/svg/media__item__logo--3.svg

<svg width="278" height="100" viewBox="0 0 278 100" fill="none" xmlns="http://www.w3.org/2000/svg">
<g clip-path="url(#clip0_7147_14330)">
<path d="M39.6165 30.0001C44.1956 30.0001 47.3554 27.9134 49.3553 23.6813H45.0947C44.6012 24.7828 43.9059 25.5649 42.9783 26.0003C42.2252 26.3774 41.1232 26.5217 39.674 26.5217C35.8184 26.5217 33.558 24.6097 32.9202 20.8703L32.8046 20.1741H50.3114C50.2826 18.0293 50.0216 16.2901 49.558 15.0151C48.7753 12.8413 47.4715 11.1018 45.7322 9.88506C43.9637 8.66752 41.8772 8.03027 39.5582 8.03027C36.4861 8.03027 33.9641 9.10267 31.8773 11.2475C29.8196 13.363 28.8047 16.0009 28.8047 19.0442C28.8047 22.2327 29.8193 24.8414 31.819 26.9286C33.8195 28.9858 36.4562 30.0001 39.6165 30.0001ZM32.8336 17.3628H32.8627L33.0653 16.6379C33.9641 13.2759 36.1955 11.5662 39.6162 11.5662C43.1522 11.5662 45.3261 13.2759 46.0795 16.6672L46.2246 17.3918H32.8336V17.3628Z" fill="#2A2A2A"/>
<path d="M28.0011 25.7591H25.1106L16.9029 0H11.018L2.85165 25.7591H0V29.3329H28.0014L28.0011 25.7591ZM7.36013 25.7591L13.9162 3.70081L20.5638 25.7591H7.36013Z" fill="#2A2A2A"/>
<path d="M54.1621 29.3904L59.4374 13.2462L64.6839 29.3904H68.9736L61.5241 8.26074H57.4667L49.9883 29.3904H54.1621Z" fill="#2A2A2A"/>
<path d="M79.7081 8.26074C76.5776 8.26074 73.9977 9.24633 71.8816 11.2747C69.7655 13.3042 68.7227 15.8256 68.7227 18.9272C68.7227 22.1446 69.7077 24.6947 71.795 26.724C73.8528 28.7817 76.4615 29.767 79.6791 29.767C82.8966 29.767 85.5335 28.7524 87.5631 26.7527C89.6211 24.7235 90.6357 22.1438 90.6357 18.9266C90.6932 15.825 89.6498 13.3037 87.534 11.2742C85.4177 9.24632 82.8382 8.26074 79.7081 8.26074ZM84.7802 24.2601C83.5048 25.6518 81.8239 26.3477 79.7366 26.3477C77.6208 26.3477 75.9108 25.6518 74.6645 24.2601C73.4182 22.8983 72.7806 21.13 72.7806 19.043C72.7806 16.9278 73.4179 15.1587 74.6645 13.7969C75.9398 12.4052 77.621 11.6803 79.7366 11.6803C81.8524 11.6803 83.5913 12.3764 84.8089 13.7679C86.0262 15.13 86.6637 16.898 86.6637 19.043C86.6358 21.1591 85.9974 22.8983 84.7802 24.2601Z" fill="#2A2A2A"/>
<path d="M122.119 8.26074C118.988 8.26074 116.408 9.24633 114.292 11.2747C112.176 13.3042 111.133 15.8256 111.133 18.9272C111.133 22.1446 112.119 24.6947 114.206 26.724C116.263 28.7817 118.872 29.767 122.089 29.767C125.307 29.767 127.945 28.7524 129.974 26.7527C132.031 24.7235 133.046 22.1438 133.046 18.9266C133.104 15.825 132.06 13.3037 129.945 11.2742C127.829 9.24632 125.249 8.26074 122.119 8.26074ZM127.19 24.2601C125.916 25.6518 124.234 26.3477 122.147 26.3477C120.031 26.3477 118.321 25.6518 117.075 24.2601C115.829 22.8983 115.191 21.13 115.191 19.043C115.191 16.9278 115.828 15.1587 117.075 13.7969C118.351 12.4052 120.031 11.6803 122.147 11.6803C124.263 11.6803 126.002 12.3764 127.219 13.7679C128.437 15.13 129.074 16.898 129.074 19.043C129.047 21.1591 128.408 22.8983 127.19 24.2601Z" fill="#2A2A2A"/>
<path d="M106.225 17.9584C106.977 16.9386 107.351 15.7314 107.351 14.291C107.382 12.5646 106.788 11.1031 105.585 9.94936C104.392 8.80549 102.955 8.24902 101.195 8.24902H94.638V8.25943H92.9141V29.3313H96.5654V29.3442H103.108C104.895 29.3442 106.384 28.7699 107.534 27.637C108.707 26.48 109.278 25.0415 109.278 23.2464C109.31 21.5203 108.716 20.0596 107.512 18.9051C107.113 18.522 106.683 18.2109 106.225 17.9584ZM101.209 11.4728C102.039 11.4728 102.687 11.7316 103.136 12.245C103.613 12.7782 103.855 13.4785 103.855 14.323C103.844 15.1648 103.598 15.8593 103.128 16.3854C102.647 16.9103 102.02 17.1653 101.209 17.1653H96.5651V11.4725H101.209V11.4728ZM105.056 25.3422C104.575 25.866 103.947 26.1218 103.136 26.1218H96.5654V20.429H103.136C103.967 20.429 104.615 20.6881 105.064 21.2016C105.541 21.7348 105.783 22.4355 105.783 23.279C105.771 24.1208 105.526 24.8153 105.056 25.3422Z" fill="#2A2A2A"/>
<path d="M227.606 10.2596C226.262 8.93585 224.517 8.26465 222.42 8.26465H216.092H214.741H212.426V29.3366H216.092V22.4657H222.436C224.503 22.4657 226.186 21.8153 227.581 20.4762C228.986 19.1294 229.679 17.4219 229.642 15.3993C229.643 13.2931 228.976 11.6116 227.606 10.2596ZM225.031 18.0928C224.425 18.7871 223.559 19.1384 222.454 19.1384H216.092V11.5922H222.454C223.532 11.5922 224.371 11.9359 225.019 12.6441C225.644 13.3415 225.967 14.2551 225.983 15.3606C225.983 16.4675 225.663 17.3874 225.031 18.0928Z" fill="#2A2A2A"/>
<path d="M149.067 8.26074L139.455 23.4969V8.26074H135.773V29.3329H139.455H139.803L149.425 14.0803V29.3329H153.096V8.26074H149.425H149.067Z" fill="#2A2A2A"/>
<path d="M176.625 24.1216L170.835 8.2627H164.969V29.2927H168.701C168.701 29.2927 168.708 15.4967 168.701 14.2745L174.68 29.3335H178.547L184.453 14.3747C184.399 15.5841 184.453 29.2927 184.453 29.2927H188.113V8.2627H182.391L176.625 24.1216Z" fill="#2A2A2A"/>
<path d="M149.86 3.70312H139.02V5.81889H149.86V3.70312Z" fill="#2A2A2A"/>
<path d="M149.86 0.0751953H139.02V2.16248H149.86V0.0751953Z" fill="#2A2A2A"/>
<path d="M204.898 8.26074L195.287 23.4969V8.26074H191.605V29.3329H195.287H195.634L205.257 14.0803V29.3329H208.928V8.26074H205.257H204.898Z" fill="#2A2A2A"/>
</g>
<defs>
<clipPath id="clip0_7147_14330">
<rect width="229.643" height="30" fill="white"/>
</clipPath>
</defs>
</svg>

<svg width="278" height="100" viewBox="0 0 278 100" fill="none" xmlns="http://www.w3.org/2000/svg"><g clip-path="url(#clip0_7147_14330)" fill="#2A2A2A"><path d="M39.617 30c4.579 0 7.738-2.087 9.738-6.319h-4.26c-.494 1.102-1.19 1.884-2.117 2.32-.753.376-1.855.52-3.304.52-3.856 0-6.116-1.911-6.754-5.65l-.115-.697H50.31c-.028-2.145-.29-3.884-.753-5.159-.783-2.174-2.087-3.913-3.826-5.13-1.768-1.217-3.855-1.855-6.174-1.855-3.072 0-5.594 1.073-7.68 3.218-2.058 2.115-3.073 4.753-3.073 7.796 0 3.189 1.014 5.797 3.014 7.885 2 2.057 4.637 3.071 7.798 3.071zm-6.783-12.637h.029l.202-.725c.9-3.362 3.13-5.072 6.551-5.072 3.536 0 5.71 1.71 6.464 5.101l.145.725H32.834v-.03zm-4.833 8.397h-2.89L16.903 0h-5.885L2.852 25.76H0v3.573h28.001v-3.574zm-20.64 0L13.915 3.7l6.648 22.06H7.36zm46.801 3.63l5.275-16.144 5.247 16.144h4.29l-7.45-21.13h-4.057l-7.479 21.13h4.174zM79.708 8.26c-3.13 0-5.71.986-7.826 3.015-2.117 2.03-3.16 4.55-3.16 7.652 0 3.218.986 5.768 3.073 7.797 2.058 2.058 4.666 3.043 7.884 3.043s5.855-1.015 7.884-3.014c2.058-2.03 3.073-4.61 3.073-7.826.057-3.102-.986-5.623-3.102-7.653-2.116-2.028-4.696-3.013-7.826-3.013zm5.072 16c-1.275 1.392-2.956 2.088-5.043 2.088-2.116 0-3.826-.696-5.072-2.088-1.247-1.362-1.884-3.13-1.884-5.217 0-2.115.637-3.884 1.883-5.246 1.276-1.392 2.957-2.117 5.073-2.117 2.115 0 3.854.696 5.072 2.088 1.217 1.362 1.855 3.13 1.855 5.275-.028 2.116-.667 3.855-1.884 5.217zm37.339-16c-3.131 0-5.711.986-7.827 3.015-2.116 2.03-3.159 4.55-3.159 7.652 0 3.218.986 5.768 3.073 7.797 2.057 2.058 4.666 3.043 7.883 3.043 3.218 0 5.856-1.015 7.885-3.014 2.057-2.03 3.072-4.61 3.072-7.826.058-3.102-.986-5.623-3.101-7.653-2.116-2.028-4.696-3.013-7.826-3.013zm5.071 16c-1.274 1.392-2.956 2.088-5.043 2.088-2.116 0-3.826-.696-5.072-2.088-1.246-1.362-1.884-3.13-1.884-5.217 0-2.115.637-3.884 1.884-5.246 1.276-1.392 2.956-2.117 5.072-2.117s3.855.696 5.072 2.088c1.218 1.362 1.855 3.13 1.855 5.275-.027 2.116-.666 3.855-1.884 5.217zm-20.965-6.302c.752-1.02 1.126-2.227 1.126-3.667.031-1.726-.563-3.188-1.766-4.342-1.193-1.144-2.63-1.7-4.39-1.7h-6.557v.01h-1.724v21.072h3.651v.013h6.543c1.787 0 3.276-.574 4.426-1.707 1.173-1.157 1.744-2.596 1.744-4.39.032-1.727-.562-3.187-1.766-4.342a6.096 6.096 0 00-1.287-.947zm-5.016-6.485c.83 0 1.478.259 1.927.772.477.533.719 1.234.719 2.078-.011.842-.257 1.536-.727 2.062-.481.525-1.108.78-1.919.78h-4.644v-5.692h4.644zm3.847 13.87c-.481.523-1.109.779-1.92.779h-6.57v-5.693h6.57c.831 0 1.479.26 1.928.773.477.533.719 1.233.719 2.077-.012.842-.257 1.536-.727 2.063zm122.55-15.083c-1.344-1.324-3.089-1.995-5.186-1.995h-9.994v21.072h3.666v-6.871h6.344c2.067 0 3.75-.65 5.145-1.99 1.405-1.347 2.098-3.054 2.061-5.077.001-2.106-.666-3.787-2.036-5.14zm-2.575 7.833c-.606.694-1.472 1.045-2.577 1.045h-6.362v-7.546h6.362c1.078 0 1.917.344 2.565 1.052.625.697.948 1.611.964 2.717 0 1.107-.32 2.026-.952 2.732zM149.067 8.26l-9.612 15.237V8.26h-3.682v21.072h4.03l9.622-15.253v15.253h3.671V8.26h-4.029zm27.558 15.862l-5.79-15.86h-5.866v21.03h3.732s.007-13.795 0-15.018l5.979 15.06h3.867l5.906-14.96c-.054 1.21 0 14.919 0 14.919h3.66V8.263h-5.722l-5.766 15.859zM149.86 3.703h-10.84V5.82h10.84V3.703zm0-3.628h-10.84v2.087h10.84V.075zm55.038 8.185l-9.611 15.237V8.26h-3.682v21.072h4.029l9.623-15.253v15.253h3.671V8.26h-4.03z"/></g><defs><clipPath id="clip0_7147_14330"><path fill="#fff" d="M0 0h229.643v30H0z"/></clipPath></defs></svg>
